frontend/public/svg/interface/sun-4.svg

<svg width="78" height="77" viewBox="0 0 78 77" fill="none" xmlns="http://www.w3.org/2000/svg">
<g clip-path="url(#clip0)">
<path d="M76.5919 40.446L76.5492 40.3677C76.2218 39.8353 75.8148 39.3565 75.3438 38.9478C75.0539 38.6814 74.7815 38.3956 74.5291 38.0923C74.1137 37.6591 73.8698 37.088 73.8419 36.4862C73.8148 35.8843 74.0056 35.293 74.3796 34.8231C75.6039 32.9614 76.2936 31.5799 75.9494 30.451C75.6052 29.3221 74.3402 28.6089 72.2663 27.7489C70.6286 27.0702 69.8282 26.4712 69.5888 25.7462C69.3494 25.0212 69.6315 24.0705 70.5277 22.5546C71.2505 21.3318 71.4096 20.18 70.989 19.2267C70.5685 18.2733 69.6231 17.6292 68.2494 17.3532C67.6224 17.2273 66.9818 17.1333 66.3613 17.0432C65.3704 16.9219 64.3891 16.7322 63.4238 16.4755C62.7241 16.3415 62.1052 15.9339 61.7021 15.3417C61.299 14.7496 61.1442 14.0207 61.2716 13.314C61.4955 10.9133 61.5809 9.6258 60.9086 8.87342C60.2201 8.10342 58.9164 8.05709 56.2667 8.03033C52.7195 7.99575 50.6502 6.71154 49.5566 3.86844C48.8533 2.03676 48.1111 1.11079 47.1509 0.86674C46.1648 0.614209 45.0097 1.11406 43.4186 2.4844C41.2568 4.34415 40.5937 4.29781 38.6816 2.16595C37.425 0.765596 36.6388 0.0778113 35.8429 0.182218C35.0613 0.286625 34.4951 1.13558 33.7238 2.66579C32.7532 4.58362 31.912 5.34122 29.7411 4.44985C28.5059 3.94478 27.5159 3.87234 26.7168 4.22929C25.9176 4.58623 25.3191 5.35688 24.85 6.64368C23.5099 10.3325 22.8357 10.8199 18.9178 10.7834C17.5195 10.7834 15.7472 11.1018 14.8542 12.0232C13.4689 13.449 14.51 14.8944 15.3454 16.0592C15.4715 16.2334 15.5958 16.4064 15.7091 16.5741C15.7334 16.6834 15.7472 16.7949 15.7504 16.9069C15.7608 17.0322 15.7731 17.1855 15.7944 17.376C15.5757 17.4994 15.3518 17.6331 15.1228 17.7676C14.4154 18.2218 13.6645 18.6031 12.8814 18.9056C12.1627 19.124 11.4235 19.2664 10.6755 19.3304C10.2362 19.3846 9.7813 19.4407 9.33741 19.5262C7.94818 19.7918 7.06887 20.2909 6.65022 21.0505C6.21669 21.8336 6.26717 22.8613 6.80811 24.2747C7.86219 27.0278 7.63766 27.6843 5.09275 29.2915C4.89864 29.4141 4.69996 29.529 4.50067 29.6438C4.10972 29.8568 3.73375 30.0967 3.37543 30.3616C2.31102 31.1878 1.74553 32.1046 1.73906 33.0129C1.76307 33.4711 1.8932 33.9173 2.11907 34.3157C2.34493 34.714 2.66016 35.0534 3.03958 35.3066C4.62876 36.5797 4.26903 37.7146 3.53656 39.3015C3.31366 39.7398 3.04881 40.155 2.74583 40.5413C2.51271 40.8498 2.29546 41.1702 2.0949 41.5012C1.31066 42.8454 1.07254 43.9157 1.34365 44.8651C1.61477 45.8146 2.3984 46.6113 3.80251 47.3448C4.11763 47.5092 4.42951 47.6808 4.7731 47.8667L5.11211 48.0534C5.01699 48.5643 4.89728 49.0805 4.7821 49.5823C4.2321 51.9699 3.66271 54.4391 5.44859 56.787L5.53532 56.9012L5.67702 56.9169C10.2355 57.407 11.1958 58.6135 10.8146 63.377C10.8082 63.4547 10.7991 63.5323 10.7901 63.61C10.7697 63.7615 10.7574 63.9139 10.7532 64.0668C10.7008 64.5666 10.7642 65.0719 10.9384 65.5425C11.1126 66.0136 11.3927 66.4378 11.7568 66.781C12.1588 67.059 12.6194 67.2391 13.1023 67.307C13.5851 67.3748 14.077 67.3285 14.5392 67.1725C18.0372 66.3464 18.8324 66.6636 20.6163 69.5993C22.4656 72.6415 22.9302 72.9645 25.9274 71.2692C27.8239 70.1977 29.4358 70.3622 30.9984 71.7854C31.9483 72.6924 32.8377 73.6627 33.6611 74.6885C34.6549 75.8703 35.3634 76.3545 36.1043 76.3545H36.1205C36.8711 76.3473 37.5815 75.8461 38.5709 74.6233C40.4105 72.3478 42.3051 71.7645 44.9018 72.6754C45.9026 73.0656 46.865 73.5498 47.7766 74.1215L48.3725 74.468C50.0069 75.4031 51.2571 75.6223 52.1986 75.1414C53.1122 74.6729 53.6551 73.5838 53.8577 71.8134C54.0518 70.1018 54.3754 68.3465 55.9626 67.3056C56.0351 67.3109 56.1029 67.3128 56.1683 67.3148C56.2746 67.3102 56.3809 67.3226 56.4835 67.3513C58.512 68.3106 59.7905 68.7406 60.7236 68.2649C61.6456 67.7957 62.0507 66.5513 62.4765 64.4185C62.7605 62.9927 63.2529 62.0732 63.9815 61.6125C64.7321 61.1342 65.8165 61.0846 67.3021 61.4585C68.8447 61.8501 70.0786 61.6491 70.7723 60.898C71.2252 60.408 71.6503 59.4624 71.0958 57.756C69.9486 54.2029 71.3456 52.0521 73.972 49.733C75.7113 48.1976 76.8223 45.8262 77.5955 43.9326C77.9863 42.989 77.2131 41.5788 76.5919 40.446ZM14.6841 24.9977C15.8529 24.6617 16.9532 24.1189 17.9336 23.3944C19.4002 22.1714 20.5377 20.5956 21.2414 18.8123L21.3151 18.6133C21.8082 17.2847 22.1052 16.4827 23.5948 16.1121C25.5042 15.637 26.7602 14.2464 27.976 12.9022C28.3972 12.4356 28.8333 11.9528 29.2882 11.5195C30.2031 10.649 31.549 10.2353 32.9764 9.79742C33.7841 9.56798 34.5767 9.287 35.3492 8.95629C35.8583 8.66356 36.293 8.25539 36.6188 7.76409C36.7482 7.59704 36.8892 7.42281 37.0393 7.24859C39.8656 9.05352 42.4585 9.35499 45.1522 8.18955C47.5579 11.9743 51.4881 13.0895 55.0845 13.6428C55.5536 18.0801 58.0325 20.9892 62.6493 22.5266C62.6758 25.8421 63.2271 29.514 66.7605 31.9662C66.9022 32.1005 67.0135 32.2637 67.0873 32.4449C67.161 32.626 67.196 32.8211 67.1889 33.0168C65.8016 38.4094 68.5781 42.3841 71.3035 45.2794C67.1138 47.4126 64.9761 50.7908 64.9437 55.3286C63.1917 55.5868 61.5389 56.3094 60.1546 57.4228C58.7702 58.5361 57.7039 60.0002 57.0645 61.6654C53.1174 61.7959 50.4542 64.1111 48.9414 68.7399C44.5097 67.5869 39.9006 67.1353 35.9872 70.9977C33.8584 68.6793 31.3665 66.4345 28.0212 66.4345C26.8721 66.4489 25.7364 66.6864 24.6767 67.1353C22.9943 64.5177 20.6072 61.5936 16.9572 61.2843L11.5749 52.4097C12.2497 50.7917 12.3961 48.999 11.9929 47.2914C11.5898 45.5838 10.6582 44.0499 9.33295 42.912C9.33295 42.0774 9.33289 41.2721 9.32771 40.4904C9.32124 38.2783 9.31477 36.1882 9.362 34.1346C9.4359 33.5652 9.63487 33.0194 9.94436 32.5372C10.8263 30.9117 11.7309 29.2999 12.7616 27.4624L14.0046 25.2437C14.1897 25.1661 14.4221 25.0865 14.6841 24.9977Z" fill="black"/>
<path d="M39.7849 60.3521C39.9144 60.3521 40.0387 60.3521 40.1648 60.3521C48.2472 60.3521 54.0611 56.5673 57.4484 49.1016C60.19 43.0545 59.8295 36.8945 59.2103 32.2008C58.9617 29.7991 58.088 27.5062 56.6776 25.5547C55.2674 23.6031 53.3707 22.0622 51.1797 21.088C49.0098 20.1647 46.7537 19.4627 44.4451 18.9927C43.4422 18.7532 42.4035 18.5052 41.4038 18.224L41.0803 18.1333L40.8922 18.823L40.5162 18.8191C40.0561 18.8139 39.5961 18.808 39.14 18.8276C27.5725 19.3144 18.1259 26.6913 15.6341 37.1842C14.2546 42.9918 15.1877 47.6106 18.4877 51.3001C23.8188 57.2624 30.7844 60.2216 39.7849 60.3521ZM21.8174 40.6871C22.1591 34.916 25.1065 30.3894 30.3431 27.5958C33.2581 26.0415 36.6196 24.5661 40.315 24.5661C41.4802 24.565 42.6406 24.7156 43.7676 25.0144C49.5633 26.5465 53.3337 31.3962 53.852 37.9882C54.1834 42.4001 52.952 46.7874 50.3767 50.3696C48.0279 53.783 44.6178 55.3432 38.9884 55.5821C38.0573 55.3948 37.1178 55.2329 36.1789 55.0705C34.102 54.76 32.0485 54.3085 30.0319 53.7191C23.8499 51.7529 21.3942 47.8553 21.8174 40.6871Z" fill="black"/>
</g>
<defs>
<clipPath id="clip0">
<rect width="77" height="77" fill="white" transform="translate(0.777344)"/>
</clipPath>
</defs>
</svg>

<svg xmlns="http://www.w3.org/2000/svg" width="78" height="77" fill="none" viewBox="0 0 78 77"><g fill="#000" clip-path="url(#a)"><path d="m76.592 40.446-.043-.078a6.1 6.1 0 0 0-1.205-1.42 9 9 0 0 1-.815-.856 2.486 2.486 0 0 1-.15-3.269c1.225-1.862 1.915-3.243 1.57-4.372-.344-1.129-1.609-1.842-3.683-2.702-1.637-.679-2.438-1.278-2.677-2.003-.24-.725.043-1.675.939-3.191.722-1.223.882-2.375.461-3.328-.42-.954-1.366-1.598-2.74-1.874a36 36 0 0 0-1.888-.31 22 22 0 0 1-2.937-.567 2.7 2.7 0 0 1-1.722-1.134 2.74 2.74 0 0 1-.43-2.028c.224-2.4.309-3.688-.363-4.44-.689-.77-1.993-.817-4.642-.844-3.548-.034-5.617-1.318-6.71-4.162-.704-1.831-1.446-2.757-2.406-3.001-.986-.253-2.141.247-3.732 1.617-2.162 1.86-2.825 1.814-4.737-.318-1.257-1.4-2.043-2.088-2.84-1.984-.78.105-1.347.954-2.118 2.484-.97 1.918-1.812 2.675-3.983 1.784-1.235-.505-2.225-.578-3.024-.22-.8.356-1.398 1.127-1.867 2.414-1.34 3.688-2.014 4.176-5.932 4.14-1.398 0-3.17.318-4.064 1.24-1.385 1.425-.344 2.87.491 4.035q.192.262.364.515.036.164.041.333.014.186.044.469c-.218.123-.442.257-.671.392q-1.064.682-2.242 1.138c-.718.218-1.457.36-2.206.424-.439.055-.894.11-1.338.196-1.389.266-2.268.765-2.687 1.524-.433.784-.383 1.811.158 3.225 1.054 2.753.83 3.41-1.715 5.017a17 17 0 0 1-.592.352 10 10 0 0 0-1.126.718c-1.064.826-1.63 1.743-1.636 2.65a2.93 2.93 0 0 0 1.3 2.294c1.59 1.274 1.23 2.409.498 3.996a7.6 7.6 0 0 1-.791 1.24q-.35.462-.651.96c-.784 1.343-1.022 2.414-.751 3.363.27.95 1.054 1.746 2.459 2.48.315.164.627.336.97.522l.34.186c-.096.511-.216 1.028-.33 1.53-.55 2.387-1.12 4.856.666 7.204l.086.114.142.016c4.559.49 5.519 1.697 5.138 6.46q-.011.116-.025.233-.03.227-.037.457a3.27 3.27 0 0 0 1.004 2.714 3.13 3.13 0 0 0 2.782.391c3.498-.826 4.293-.508 6.077 2.427 1.85 3.042 2.314 3.365 5.311 1.67 1.897-1.071 3.509-.907 5.071.516.95.907 1.84 1.878 2.663 2.904.994 1.181 1.702 1.666 2.443 1.666h.017c.75-.008 1.46-.509 2.45-1.732 1.84-2.275 3.734-2.859 6.33-1.948 1.002.39 1.964.875 2.876 1.447l.596.346c1.634.935 2.884 1.154 3.826.673.913-.468 1.456-1.557 1.659-3.328.194-1.711.517-3.466 2.105-4.507q.108.007.205.009.161-.007.316.036c2.028.96 3.307 1.39 4.24.914.922-.47 1.327-1.714 1.753-3.847.284-1.425.776-2.345 1.505-2.806.75-.478 1.835-.527 3.32-.154 1.543.392 2.777.191 3.47-.56.453-.49.878-1.436.324-3.142-1.147-3.553.25-5.704 2.876-8.023 1.74-1.535 2.85-3.907 3.624-5.8.39-.944-.383-2.354-1.004-3.487M14.684 24.998a10.2 10.2 0 0 0 3.25-1.604 11.4 11.4 0 0 0 3.307-4.582l.074-.199c.493-1.328.79-2.13 2.28-2.5 1.91-.476 3.165-1.867 4.381-3.21.421-.467.857-.95 1.312-1.383.915-.871 2.261-1.285 3.688-1.723q1.213-.344 2.373-.84c.51-.293.944-.702 1.27-1.193q.195-.252.42-.515c2.827 1.805 5.42 2.106 8.113.94 2.406 3.785 6.336 4.9 9.932 5.454.47 4.437 2.948 7.346 7.565 8.884.027 3.315.578 6.987 4.111 9.44a1.37 1.37 0 0 1 .429 1.05c-1.387 5.392 1.39 9.367 4.115 12.262-4.19 2.134-6.328 5.512-6.36 10.05a9.96 9.96 0 0 0-4.79 2.094 10.1 10.1 0 0 0-3.09 4.242c-3.947.13-6.61 2.446-8.123 7.075-4.431-1.153-9.04-1.605-12.954 2.258-2.129-2.319-4.62-4.564-7.966-4.564a8.9 8.9 0 0 0-3.344.701c-1.683-2.617-4.07-5.541-7.72-5.85l-5.382-8.875a8.33 8.33 0 0 0 .418-5.119 8.28 8.28 0 0 0-2.66-4.379q.001-1.25-.005-2.422c-.007-2.212-.013-4.302.034-6.355a3.9 3.9 0 0 1 .582-1.598c.882-1.625 1.787-3.237 2.818-5.075l1.243-2.218a11 11 0 0 1 .68-.246"/><path d="M39.785 60.352h.38c8.082 0 13.896-3.785 17.283-11.25C60.19 43.055 59.83 36.895 59.21 32.2a13.77 13.77 0 0 0-2.532-6.646 13.6 13.6 0 0 0-5.498-4.467 35 35 0 0 0-6.735-2.095c-1.003-.24-2.041-.488-3.041-.769l-.324-.09-.188.689-.376-.004c-.46-.005-.92-.011-1.376.009-11.567.486-21.014 7.863-23.506 18.356-1.38 5.808-.446 10.427 2.854 14.116 5.33 5.962 12.296 8.922 21.297 9.052M21.817 40.687c.342-5.771 3.29-10.298 8.526-13.091 2.915-1.555 6.277-3.03 9.972-3.03 1.165-.001 2.326.15 3.453.448 5.795 1.533 9.566 6.382 10.084 12.974.331 4.412-.9 8.8-3.475 12.382-2.35 3.413-5.76 4.973-11.389 5.212-.93-.187-1.87-.35-2.81-.511a46 46 0 0 1-6.146-1.352c-6.182-1.966-8.638-5.864-8.215-13.032"/></g><defs><clipPath id="a"><path fill="#fff" d="M.777 0h77v77h-77z"/></clipPath></defs></svg>
